X:1
T:Title
%%score 1 2
L:1/8
Q:1/4=53
M:6/8
K:A
V:1 treble nm="Violin, Soprano"
V:2 bass nm="Violin, Bass"
V:1
 z3 z2 [CE]/[CE]/ | [CE]>[DF][CE] [CA]2 [Ec] | [DB] [CA]2- [CA]2 [EA] | %3
w: 1.~I~ am~|on ly~ an~ earth en~|ves sel~ * That~|
 [FA]>[FB][FA] [FA][EG][DF] | [CE]3- [CE]2 [CE]/[CE]/ | [DF]>[DF][DF] [DF][DG][DA] | %6
w: Je sus~ may~ use~ as~ He~|will,~ * Wheth er~|much~ I~ may~ do~ in~ His~|
 [CE] [CA]2- [CA]2 [FB] | [Ec]>[Ec][Ed] [Ec][CA][DB] | [CA]3- [CA]2 [CA]/[CA]/ | %9
w: vine yard,~ * Or~|small~ be~ the~ place~ that~ I~|fill.~ * * *|
 [DB]>[DE][DE] [DE]2 [EB] | [Ec] [CA]2- [CA]2 [Ec] | [^Dc]>[DB][DA] [FA][^EG][FA] | %12
w: |||
 [EB]3- [EB]2 [Ec]/[Ed]/ | [Ae]>[Ec][Ec] [Ec][EB][EA] | [FA] [DF]2- [DF]2 [DA] | %15
w: |||
 [DE]<[DE][DE] [DG][CA][DB] | [CA]6 |] %17
w: ||
V:2
 z3 z2 [A,,A,]/[A,,A,]/ | [A,,A,]>[A,,A,][A,,A,] [A,,A,]2 [A,,A,] | %2
 [A,,A,] [A,,A,]2- [A,,A,]2 [C,A,] | [D,D]>[D,D][D,D] [D,A,][D,A,][D,A,] | %4
 [A,,A,]3- [A,,A,]2 [A,,A,]/[A,,A,]/ | [D,A,]>[D,A,][D,A,] [D,A,][E,A,][F,A,] | %6
 A, A,2- A,2 [D,A,] | [E,A,]>[E,A,][E,B,] [E,A,][E,A,][E,G,] | %8
 [A,,A,]3- [A,,A,]2 [A,,A,]/[A,,A,]/ | [E,G,]>[E,G,][E,G,] [E,G,]2 [E,G,] | A, A,2- A,2 A, | %11
 [F,A,]>[F,A,][F,A,] [B,,B,][B,,B,][B,,B,] | [E,G,]3- [E,G,]2 A,/[A,B,]/ | %13
 [A,C]>A,A, [A,,A,][B,,G,][C,A,] | [D,A,] [D,A,]2- [D,A,]2 [D,F,] | %15
 [E,G,]<[E,G,][E,G,] [E,B,][E,A,][E,G,] | [A,,A,]6 |] %17

